Adwaita++-Dark/actions/16/media-skip-forward.svg

<svg fill="none" height="16" viewBox="0 0 16 16" width="16" xmlns="http://www.w3.org/2000/svg">
  <g fill="#e6ddff">
    <path d="m1 4c.17738.008.35117.0592.5.15625l5 3c.2824.17971.4375.51173.4375.84375s-.1551.66404-.4375.84375l-5 3.00005c-.14883.097-.32262.1482-.5.1562h-.15625-.84375v-8h.84375z"/>
    <path d="m14 4v8h2v-8z"/>
    <path d="m8 4c.17738.008.35117.0592.5.15625l5 3c.2824.17971.4375.51173.4375.84375s-.1551.66404-.4375.84375l-5 3.00005c-.14883.097-.32262.1482-.5.1562h-.15625-.84375v-8h.84375z"/>
  </g>
</svg>

<svg xmlns="http://www.w3.org/2000/svg" fill="none" width="16" height="16" viewBox="0 0 16 16">
 <path fill="#E6DDFF" d="M1 4C1.17738 4.008 1.35117 4.0592 1.5 4.15625L6.5 7.15625C6.7824 7.33596 6.9375 7.66798 6.9375 8C6.9375 8.33202 6.7824 8.66404 6.5 8.84375L1.5 11.8438C1.35117 11.9408 1.17738 11.992 1 12H0.84375H0V4H0.84375H1Z"/>
 <path fill="#E6DDFF" d="M14 4V12H16V4H14Z"/>
 <path fill="#E6DDFF" d="M8 4C8.17738 4.008 8.35117 4.0592 8.5 4.15625L13.5 7.15625C13.7824 7.33596 13.9375 7.66798 13.9375 8C13.9375 8.33202 13.7824 8.66404 13.5 8.84375L8.5 11.8438C8.35117 11.9408 8.17738 11.992 8 12H7.84375H7V4H7.84375H8Z"/>
</svg>
